X: 4759
T: Boys Of Carrickroe
R: jig
M: 6/8
K: Adorian
|:~G3 ~B3|def gzf|edB G2B|DFA edc|
Bgf g2a|bag agf|gzg edB|1 AGF G DE:|2 AGF G2A||
Bee edc|Bgf g2a|bag agf|gzg edc|
B2e edc|Bgf g2a|bag agf|gzg edc|
Bee Bee|Bee g2a|bag agf|gzg edc|
(3Bcd e edc|Bgf g2a|bag agf|gzg edB||

